X:1
T:Huzza for Liberty
M:6/8
L:1/8
K:D
 D| D2 EF-E D| A2 A A2 d| d2 c d/2- A3/2 G| F3/2- G/2 E D2 A| A2 A A2 A|\
 A3 z2 d| d2 d d2 d| d3 z2 A| d2 A F2 D| A3 z2||
